svg/color/gtm.svg

<?xml version="1.0" encoding="UTF-8" ?>
<!DOCTYPE svg PUBLIC "-//W3C//DTD SVG 1.1//EN" "http://www.w3.org/Graphics/SVG/1.1/DTD/svg11.dtd">
<svg width="250pt" height="250pt" viewBox="0 0 250 250" version="1.1" xmlns="http://www.w3.org/2000/svg">
<g id="#ffffffff">
<path fill="#ffffff" opacity="1.00" d=" M 0.00 0.00 L 123.03 0.00 C 114.45 1.00 107.59 9.35 108.69 18.00 C 109.30 26.89 118.18 34.00 127.00 32.66 C 135.50 31.85 142.27 23.51 141.33 15.02 C 140.90 7.51 134.69 1.26 127.40 0.00 L 250.00 0.00 L 250.00 122.91 C 249.04 113.92 239.96 106.88 231.01 108.61 C 222.15 109.78 215.63 119.14 217.53 127.88 C 218.96 136.63 228.34 142.93 237.00 140.87 C 243.66 139.63 248.73 133.85 250.00 127.32 L 250.00 250.00 L 0.00 250.00 L 0.00 127.04 C 0.95 135.63 9.29 142.54 17.95 141.46 C 26.90 140.86 34.02 131.87 32.62 123.01 C 31.72 114.18 22.70 107.33 13.93 108.91 C 6.86 109.79 1.27 115.78 0.00 122.66 L 0.00 0.00 M 62.79 50.12 C 72.23 59.81 82.16 68.98 91.61 78.64 C 110.65 64.08 139.36 64.06 158.38 78.63 C 168.04 68.95 177.79 59.37 187.56 49.80 C 183.64 45.73 179.68 41.68 175.75 37.63 C 169.05 44.24 162.43 50.93 155.76 57.57 C 136.60 48.84 113.74 48.80 94.59 57.59 C 88.00 51.07 81.48 44.48 74.91 37.94 C 70.84 41.97 66.85 46.08 62.79 50.12 M 49.40 62.19 C 45.35 66.23 41.29 70.28 37.25 74.34 C 43.80 80.89 50.30 87.49 56.86 94.03 C 48.12 113.21 48.12 136.09 56.87 155.27 C 50.23 161.94 43.55 168.57 36.91 175.25 C 40.96 179.32 45.01 183.38 49.08 187.42 C 59.02 177.90 68.96 168.39 78.58 158.55 C 64.25 139.38 64.37 110.72 78.90 91.69 C 69.08 81.84 59.24 72.01 49.40 62.19 M 200.57 62.51 C 190.86 72.24 181.13 81.95 171.42 91.68 C 185.95 110.66 185.74 139.23 171.42 158.26 C 181.02 167.89 190.64 177.49 200.26 187.10 C 204.32 183.16 208.39 179.23 212.40 175.25 C 205.90 168.68 199.37 162.13 192.82 155.59 C 197.51 145.08 199.85 133.51 199.32 122.00 C 199.07 112.47 196.36 103.25 192.92 94.44 C 199.65 87.97 206.15 81.27 212.78 74.69 C 208.72 70.62 204.67 66.54 200.57 62.51 M 120.44 86.58 C 114.00 87.36 107.75 89.75 102.51 93.58 C 90.32 102.23 84.17 118.34 87.34 132.93 C 89.47 143.75 96.63 153.40 106.25 158.75 C 115.63 164.03 127.23 165.04 137.44 161.67 C 148.65 158.02 157.90 148.88 161.68 137.70 C 166.57 123.79 162.80 107.22 152.01 97.09 C 143.80 89.02 131.83 85.16 120.44 86.58 M 62.76 200.16 C 66.80 204.23 70.86 208.29 74.94 212.34 C 81.64 205.73 88.19 198.97 94.89 192.35 C 114.05 201.10 136.90 201.11 156.06 192.37 C 162.63 198.89 169.15 205.47 175.72 212.00 C 179.79 207.95 183.84 203.89 187.89 199.82 C 177.94 190.43 167.94 181.08 158.38 171.29 C 139.34 185.85 110.64 185.88 91.62 171.30 C 81.98 180.90 72.37 190.53 62.76 200.16 Z" />
<path fill="#ffffff" opacity="1.00" d=" M 119.42 104.54 C 126.37 102.51 134.31 104.33 139.56 109.34 C 144.45 113.79 147.22 120.50 146.64 127.11 C 146.18 133.82 142.19 140.10 136.41 143.49 C 129.58 147.70 120.41 147.64 113.64 143.32 C 106.51 139.01 102.53 130.21 103.86 122.00 C 104.99 113.77 111.51 106.78 119.42 104.54 Z" />
</g>
<g id="#e65f55ff">
<path fill="#e65f55" opacity="1.00" d=" M 123.03 0.00 L 127.40 0.00 C 134.69 1.26 140.90 7.51 141.33 15.02 C 142.27 23.51 135.50 31.85 127.00 32.66 C 118.18 34.00 109.30 26.89 108.69 18.00 C 107.59 9.35 114.45 1.00 123.03 0.00 Z" />
<path fill="#e65f55" opacity="1.00" d=" M 62.79 50.12 C 66.85 46.08 70.84 41.97 74.91 37.94 C 81.48 44.48 88.00 51.07 94.59 57.59 C 113.74 48.80 136.60 48.84 155.76 57.57 C 162.43 50.93 169.05 44.24 175.75 37.63 C 179.68 41.68 183.64 45.73 187.56 49.80 C 177.79 59.37 168.04 68.95 158.38 78.63 C 139.36 64.06 110.65 64.08 91.61 78.64 C 82.16 68.98 72.23 59.81 62.79 50.12 Z" />
<path fill="#e65f55" opacity="1.00" d=" M 49.40 62.19 C 59.24 72.01 69.08 81.84 78.90 91.69 C 64.37 110.72 64.25 139.38 78.58 158.55 C 68.96 168.39 59.02 177.90 49.08 187.42 C 45.01 183.38 40.96 179.32 36.91 175.25 C 43.55 168.57 50.23 161.94 56.87 155.27 C 48.12 136.09 48.12 113.21 56.86 94.03 C 50.30 87.49 43.80 80.89 37.25 74.34 C 41.29 70.28 45.35 66.23 49.40 62.19 Z" />
<path fill="#e65f55" opacity="1.00" d=" M 200.57 62.51 C 204.67 66.54 208.72 70.62 212.78 74.69 C 206.15 81.27 199.65 87.97 192.92 94.44 C 196.36 103.25 199.07 112.47 199.32 122.00 C 199.85 133.51 197.51 145.08 192.82 155.59 C 199.37 162.13 205.90 168.68 212.40 175.25 C 208.39 179.23 204.32 183.16 200.26 187.10 C 190.64 177.49 181.02 167.89 171.42 158.26 C 185.74 139.23 185.95 110.66 171.42 91.68 C 181.13 81.95 190.86 72.24 200.57 62.51 Z" />
<path fill="#e65f55" opacity="1.00" d=" M 120.44 86.58 C 131.83 85.16 143.80 89.02 152.01 97.09 C 162.80 107.22 166.57 123.79 161.68 137.70 C 157.90 148.88 148.65 158.02 137.44 161.67 C 127.23 165.04 115.63 164.03 106.25 158.75 C 96.63 153.40 89.47 143.75 87.34 132.93 C 84.17 118.34 90.32 102.23 102.51 93.58 C 107.75 89.75 114.00 87.36 120.44 86.58 M 119.42 104.54 C 111.51 106.78 104.99 113.77 103.86 122.00 C 102.53 130.21 106.51 139.01 113.64 143.32 C 120.41 147.64 129.58 147.70 136.41 143.49 C 142.19 140.10 146.18 133.82 146.64 127.11 C 147.22 120.50 144.45 113.79 139.56 109.34 C 134.31 104.33 126.37 102.51 119.42 104.54 Z" />
<path fill="#e65f55" opacity="1.00" d=" M 0.00 122.66 C 1.27 115.78 6.86 109.79 13.93 108.91 C 22.70 107.33 31.72 114.18 32.62 123.01 C 34.02 131.87 26.90 140.86 17.95 141.46 C 9.29 142.54 0.95 135.63 0.00 127.04 L 0.00 122.66 Z" />
<path fill="#e65f55" opacity="1.00" d=" M 217.53 127.88 C 215.63 119.14 222.15 109.78 231.01 108.61 C 239.96 106.88 249.04 113.92 250.00 122.91 L 250.00 127.32 C 248.73 133.85 243.66 139.63 237.00 140.87 C 228.34 142.93 218.96 136.63 217.53 127.88 Z" />
<path fill="#e65f55" opacity="1.00" d=" M 62.76 200.16 C 72.37 190.53 81.98 180.90 91.62 171.30 C 110.64 185.88 139.34 185.85 158.38 171.29 C 167.94 181.08 177.94 190.43 187.89 199.82 C 183.84 203.89 179.79 207.95 175.72 212.00 C 169.15 205.47 162.63 198.89 156.06 192.37 C 136.90 201.11 114.05 201.10 94.89 192.35 C 88.19 198.97 81.64 205.73 74.94 212.34 C 70.86 208.29 66.80 204.23 62.76 200.16 Z" />
</g>
</svg>

<?xml version="1.0" encoding="utf-8"?>
<!-- Generator: Adobe Illustrator 26.0.3, SVG Export Plug-In . SVG Version: 6.00 Build 0)  -->
<svg version="1.1" id="Layer_1" xmlns="http://www.w3.org/2000/svg" xmlns:xlink="http://www.w3.org/1999/xlink" x="0px" y="0px"
	 viewBox="0 0 250 250" style="enable-background:new 0 0 250 250;" xml:space="preserve">
<style type="text/css">
	.st0{fill:#FFFFFF;}
	.st1{fill:#E65F55;}
</style>
<g id="_x23_ffffffff">
	<path class="st0" d="M119.4,104.5c7-2,14.9-0.2,20.1,4.8c4.9,4.5,7.7,11.2,7.1,17.8c-0.5,6.7-4.4,13-10.2,16.4
		c-6.8,4.2-16,4.1-22.8-0.2c-7.1-4.3-11.1-13.1-9.8-21.3C105,113.8,111.5,106.8,119.4,104.5z"/>
</g>
<g id="_x23_e65f55ff">
	<path class="st1" d="M123,0h4.4c7.3,1.3,13.5,7.5,13.9,15c0.9,8.5-5.8,16.8-14.3,17.6c-8.8,1.3-17.7-5.8-18.3-14.7
		C107.6,9.4,114.4,1,123,0z"/>
	<path class="st1" d="M62.8,50.1c4.1-4,8-8.1,12.1-12.2c6.6,6.5,13.1,13.1,19.7,19.7c19.2-8.8,42-8.8,61.2,0
		c6.7-6.6,13.3-13.3,20-19.9c3.9,4,7.9,8.1,11.8,12.2c-9.8,9.6-19.5,19.1-29.2,28.8c-19-14.6-47.7-14.5-66.8,0
		C82.2,69,72.2,59.8,62.8,50.1z"/>
	<path class="st1" d="M49.4,62.2c9.8,9.8,19.7,19.6,29.5,29.5c-14.5,19-14.7,47.7-0.3,66.9c-9.6,9.8-19.6,19.3-29.5,28.9
		c-4.1-4-8.1-8.1-12.2-12.2c6.6-6.7,13.3-13.3,20-20c-8.8-19.2-8.8-42.1,0-61.2c-6.6-6.5-13.1-13.1-19.6-19.7
		C41.3,70.3,45.3,66.2,49.4,62.2z"/>
	<path class="st1" d="M200.6,62.5c4.1,4,8.1,8.1,12.2,12.2c-6.6,6.6-13.1,13.3-19.9,19.8c3.4,8.8,6.2,18,6.4,27.6
		c0.5,11.5-1.8,23.1-6.5,33.6c6.5,6.5,13.1,13.1,19.6,19.7c-4,4-8.1,7.9-12.1,11.9c-9.6-9.6-19.2-19.2-28.8-28.8
		c14.3-19,14.5-47.6,0-66.6C181.1,81.9,190.9,72.2,200.6,62.5z"/>
	<path class="st1" d="M120.4,86.6c11.4-1.4,23.4,2.4,31.6,10.5c10.8,10.1,14.6,26.7,9.7,40.6c-3.8,11.2-13,20.3-24.2,24
		c-10.2,3.4-21.8,2.4-31.2-2.9c-9.6-5.4-16.8-15-18.9-25.8c-3.2-14.6,3-30.7,15.2-39.3C107.8,89.8,114,87.4,120.4,86.6 M119.4,104.5
		c-7.9,2.2-14.4,9.2-15.6,17.5c-1.3,8.2,2.7,17,9.8,21.3c6.8,4.3,15.9,4.4,22.8,0.2c5.8-3.4,9.8-9.7,10.2-16.4
		c0.6-6.6-2.2-13.3-7.1-17.8C134.3,104.3,126.4,102.5,119.4,104.5z"/>
	<path class="st1" d="M0,122.7c1.3-6.9,6.9-12.9,13.9-13.8c8.8-1.6,17.8,5.3,18.7,14.1c1.4,8.9-5.7,17.8-14.7,18.5
		c-8.7,1.1-17-5.8-18-14.4V122.7z"/>
	<path class="st1" d="M217.5,127.9c-1.9-8.7,4.6-18.1,13.5-19.3c9-1.7,18,5.3,19,14.3v4.4c-1.3,6.5-6.3,12.3-13,13.5
		C228.3,142.9,219,136.6,217.5,127.9z"/>
	<path class="st1" d="M62.8,200.2c9.6-9.6,19.2-19.3,28.9-28.9c19,14.6,47.7,14.6,66.8,0c9.6,9.8,19.6,19.1,29.5,28.5
		c-4.1,4.1-8.1,8.1-12.2,12.2c-6.6-6.5-13.1-13.1-19.7-19.6c-19.2,8.7-42,8.7-61.2,0c-6.7,6.6-13.2,13.4-19.9,20
		C70.9,208.3,66.8,204.2,62.8,200.2z"/>
</g>
</svg>
